www/assets/icons/zoom_in_map.svg

<svg xmlns="http://www.w3.org/2000/svg" width="24" height="24" viewBox="0 0 24 24" fill='currentColor'><path d="M9 9V3H7v2.59L3.91 2.5 2.5 3.91 5.59 7H3v2zm12 0V7h-2.59l3.09-3.09-1.41-1.41L17 5.59V3h-2v6zM3 15v2h2.59L2.5 20.09l1.41 1.41L7 18.41V21h2v-6zm12 0v6h2v-2.59l3.09 3.09 1.41-1.41L18.41 17H21v-2z"/></svg>

<svg width="24" height="24" viewBox="0 0 24 24" xmlns="http://www.w3.org/2000/svg" fill='currentColor'><path d="M9 9V3H7V5.59L3.91 2.5L2.5 3.91L5.59 7H3V9H9ZM21 9V7H18.41L21.5 3.91L20.09 2.5L17 5.59V3H15V9H21ZM3 15V17H5.59L2.5 20.09L3.91 21.5L7 18.41V21H9V15H3ZM15 15V21H17V18.41L20.09 21.5L21.5 20.09L18.41 17H21V15H15Z"/></svg>
